react_webviews/src/assets/park_money.svg

<svg width="32" height="33" viewBox="0 0 32 33" fill="none" xmlns="http://www.w3.org/2000/svg">
<path d="M14.2496 5.12487C14.2496 3.6724 15.4265 2.50005 16.8747 2.50005C18.3272 2.50005 19.4995 3.6724 19.4995 5.12487C19.4995 6.57302 18.3272 7.75 16.8747 7.75C15.4265 7.75 14.2496 6.57302 14.2496 5.12487Z" fill="#5AAAF6"/>
<path fill-rule="evenodd" clip-rule="evenodd" d="M28.0674 15.0184C28.1186 15.0263 28.1737 15.0302 28.2248 15.034C28.6066 15.0576 29.0395 15.0144 29.4213 14.9359C30.169 14.783 30.169 14.1355 29.555 14.2415C29.2835 14.2886 28.9647 14.3161 28.6695 14.265C28.705 14.1944 28.7364 14.1198 28.764 14.0452C28.9096 13.6609 28.9962 13.2253 28.9057 12.8173C28.8309 12.48 28.6341 12.1896 28.3193 12.0248C27.8549 11.7776 27.3039 11.8915 26.8946 12.1896C26.631 12.3817 26.4459 12.6486 26.3712 12.9704C26.261 13.4567 26.4303 13.963 26.7529 14.3356C26.8592 14.4613 26.9812 14.5672 27.115 14.6613C26.871 14.7554 26.5994 14.8182 26.3358 14.8614C25.5132 13.7236 24.4192 12.8212 23.1953 12.272C20.3026 10.9773 16.5401 11.1969 12.7975 11.35C11.4988 10.0357 8.77549 9.30586 6.98478 9.54531C6.61089 9.59624 6.26074 10.0787 6.42984 10.4163C6.97297 11.4794 7.59483 12.4877 7.68909 13.7236C6.98866 14.3317 6.37473 14.9478 5.91823 15.6068C5.11936 16.7564 4.6115 17.2978 4.06073 17.4901C3.6631 17.6313 2.87215 17.6941 2.51784 18.0315C2.01816 18.514 2.01816 19.3812 2.00233 20.3621C1.97485 22.0962 2.2149 23.026 3.0139 23.183C4.31647 23.438 5.01302 24.0147 5.46951 24.5756C6.63046 25.9999 8.32288 26.4745 9.35791 27.7144C9.61379 28.0165 9.71597 28.4324 9.77512 28.8993C9.95616 30.241 9.94825 30.5 11.3256 30.5H13.3288C14.3992 30.5 14.356 29.7624 14.4899 29.2641C14.5567 29.0209 14.6905 28.7816 15.1549 28.8522C16.4222 29.0406 17.3313 29.0954 18.4882 28.9267C18.8662 28.8679 19.2478 28.8444 19.3778 29.0523C19.6807 29.527 19.4289 30.5 20.3105 30.5H23.2975C23.8209 30.5 23.9981 30.0841 24.1122 29.6291C24.3877 28.5384 24.4546 27.5457 25.2102 26.6512C28.2721 23.026 28.5003 19.7971 27.4023 16.8505C27.237 16.4033 27.0324 15.9756 26.7962 15.5715C27.2331 15.4735 27.6582 15.3244 28.0123 15.0614C28.032 15.0458 28.0478 15.034 28.0674 15.0184ZM14.5332 12.4524C16.1938 12.3192 18.0633 12.3269 19.7281 12.5701C20.3105 12.6526 20.2908 13.4137 19.7043 13.3549C18.0004 13.1861 16.1586 13.1861 14.5017 13.2371C13.9193 13.2567 13.9467 12.4995 14.5332 12.4524ZM7.68909 15.8148C7.25245 15.8148 6.90203 16.164 6.90203 16.5994C6.90203 17.031 7.25245 17.3841 7.68909 17.3841C8.12213 17.3841 8.47644 17.031 8.47644 16.5994C8.47644 16.164 8.12213 15.8148 7.68909 15.8148ZM27.8234 14.1553C27.6423 14.0807 27.481 13.9747 27.3511 13.8217C27.1937 13.6412 27.0835 13.3861 27.1387 13.143C27.1701 13.0095 27.2488 12.9036 27.3591 12.8252C27.5164 12.7074 27.7643 12.6173 27.9533 12.7193C28.2878 12.8958 28.1304 13.5039 28.0281 13.7668C27.9769 13.9079 27.906 14.0375 27.8234 14.1553Z" fill="#5AAAF6"/>
</svg>

<svg xmlns="http://www.w3.org/2000/svg" width="32" height="33" fill="#5aaaf6" xmlns:v="https://vecta.io/nano"><path d="M14.25 5.125c0-1.452 1.177-2.625 2.625-2.625A2.62 2.62 0 0 1 19.5 5.125c0 1.448-1.172 2.625-2.625 2.625a2.63 2.63 0 0 1-2.625-2.625z"/><path fill-rule="evenodd" d="M28.067 15.018c.051.008.106.012.157.016a4.74 4.74 0 0 0 1.197-.098c.748-.153.748-.8.134-.694-.271.047-.59.075-.886.024a2.16 2.16 0 0 0 .095-.22c.146-.384.232-.82.142-1.228-.075-.337-.272-.628-.586-.792-.464-.247-1.015-.133-1.425.165a1.33 1.33 0 0 0-.523.781c-.11.486.059.993.382 1.365.106.126.228.232.362.326-.244.094-.516.157-.779.2-.823-1.138-1.917-2.04-3.14-2.589-2.893-1.295-6.655-1.075-10.398-.922-1.299-1.314-4.022-2.044-5.813-1.805-.374.051-.724.533-.555.871.543 1.063 1.165 2.071 1.259 3.307-.7.608-1.314 1.224-1.771 1.883-.799 1.15-1.307 1.691-1.857 1.883-.398.141-1.189.204-1.543.541-.5.482-.5 1.35-.516 2.331-.027 1.734.213 2.664 1.012 2.821 1.303.255 1.999.832 2.456 1.393C6.63 26 8.323 26.475 9.358 27.714c.256.302.358.718.417 1.185.181 1.342.173 1.601 1.55 1.601h2.003c1.07 0 1.027-.738 1.161-1.236.067-.243.201-.482.665-.412 1.267.188 2.176.243 3.333.075.378-.059.76-.082.89.126.303.475.051 1.448.933 1.448h2.987c.523 0 .701-.416.815-.871.275-1.091.342-2.083 1.098-2.978 3.062-3.625 3.29-6.854 2.192-9.801-.165-.447-.37-.875-.606-1.279.437-.098.862-.247 1.216-.51l.055-.043zm-13.534-2.566c1.661-.133 3.53-.126 5.195.118.582.082.563.844-.024.785-1.704-.169-3.546-.169-5.203-.118-.582.02-.555-.738.032-.785zm-6.844 3.362c-.437 0-.787.349-.787.785s.35.785.787.785a.79.79 0 0 0 .787-.785c0-.435-.354-.785-.787-.785zm20.134-1.659a1.21 1.21 0 0 1-.472-.334c-.157-.181-.268-.436-.212-.679.031-.134.11-.239.22-.318.157-.118.405-.208.594-.106.335.176.177.785.075 1.047a1.67 1.67 0 0 1-.205.389z"/></svg>
